src/svg/globe.svg

<svg height="16" width="14" xmlns="http://www.w3.org/2000/svg" viewBox="0 0 14 16">
  <path d="M7 1C3.14 1 0 4.14 0 8s3.14 7 7 7c0.48 0 0.94-0.05 1.38-0.14-0.17-0.08-0.2-0.73-0.02-1.09 0.19-0.41 0.81-1.45 0.2-1.8s-0.44-0.5-0.81-0.91-0.22-0.47-0.25-0.58c-0.08-0.34 0.36-0.89 0.39-0.94 0.02-0.06 0.02-0.27 0-0.33 0-0.08-0.27-0.22-0.34-0.23-0.06 0-0.11 0.11-0.2 0.13s-0.5-0.25-0.59-0.33-0.14-0.23-0.27-0.34c-0.13-0.13-0.14-0.03-0.33-0.11s-0.8-0.31-1.28-0.48c-0.48-0.19-0.52-0.47-0.52-0.66-0.02-0.2-0.3-0.47-0.42-0.67-0.14-0.2-0.16-0.47-0.2-0.41s0.25 0.78 0.2 0.81c-0.05 0.02-0.16-0.2-0.3-0.38-0.14-0.19 0.14-0.09-0.3-0.95s0.14-1.3 0.17-1.75 0.38 0.17 0.19-0.13 0-0.89-0.14-1.11c-0.13-0.22-0.88 0.25-0.88 0.25 0.02-0.22 0.69-0.58 1.16-0.92s0.78-0.06 1.16 0.05c0.39 0.13 0.41 0.09 0.28-0.05-0.13-0.13 0.06-0.17 0.36-0.13 0.28 0.05 0.38 0.41 0.83 0.36 0.47-0.03 0.05 0.09 0.11 0.22s-0.06 0.11-0.38 0.3c-0.3 0.2 0.02 0.22 0.55 0.61s0.38-0.25 0.31-0.55 0.39-0.06 0.39-0.06c0.33 0.22 0.27 0.02 0.5 0.08s0.91 0.64 0.91 0.64c-0.83 0.44-0.31 0.48-0.17 0.59s-0.28 0.3-0.28 0.3c-0.17-0.17-0.19 0.02-0.3 0.08s-0.02 0.22-0.02 0.22c-0.56 0.09-0.44 0.69-0.42 0.83 0 0.14-0.38 0.36-0.47 0.58-0.09 0.2 0.25 0.64 0.06 0.66-0.19 0.03-0.34-0.66-1.31-0.41-0.3 0.08-0.94 0.41-0.59 1.08 0.36 0.69 0.92-0.19 1.11-0.09s-0.06 0.53-0.02 0.55 0.53 0.02 0.56 0.61 0.77 0.53 0.92 0.55c0.17 0 0.7-0.44 0.77-0.45 0.06-0.03 0.38-0.28 1.03 0.09 0.66 0.36 0.98 0.31 1.2 0.47s0.08 0.47 0.28 0.58 1.06-0.03 1.28 0.31-0.88 2.09-1.22 2.28-0.48 0.64-0.84 0.92-0.81 0.64-1.27 0.91c-0.41 0.23-0.47 0.66-0.66 0.8 3.14-0.7 5.48-3.5 5.48-6.84 0-3.86-3.14-7-7-7z m1.64 6.56c-0.09 0.03-0.28 0.22-0.78-0.08-0.48-0.3-0.81-0.23-0.86-0.28 0 0-0.05-0.11 0.17-0.14 0.44-0.05 0.98 0.41 1.11 0.41s0.19-0.13 0.41-0.05 0.05 0.13-0.05 0.14zM6.34 1.7c-0.05-0.03 0.03-0.08 0.09-0.14 0.03-0.03 0.02-0.11 0.05-0.14 0.11-0.11 0.61-0.25 0.52 0.03-0.11 0.27-0.58 0.3-0.66 0.25z m1.23 0.89c-0.19-0.02-0.58-0.05-0.52-0.14 0.3-0.28-0.09-0.38-0.34-0.38-0.25-0.02-0.34-0.16-0.22-0.19s0.61 0.02 0.7 0.08c0.08 0.06 0.52 0.25 0.55 0.38 0.02 0.13 0 0.25-0.17 0.25z m1.47-0.05c-0.14 0.09-0.83-0.41-0.95-0.52-0.56-0.48-0.89-0.31-1-0.41s-0.08-0.19 0.11-0.34 0.69 0.06 1 0.09c0.3 0.03 0.66 0.27 0.66 0.55 0.02 0.25 0.33 0.5 0.19 0.63z" />
</svg>

<?xml version="1.0" encoding="UTF-8" standalone="no"?>
<svg width="14px" height="16px" viewBox="0 0 14 16" version="1.1" xmlns="http://www.w3.org/2000/svg" xmlns:xlink="http://www.w3.org/1999/xlink">
    <!-- Generator: Sketch 3.7.1 (28215) - http://www.bohemiancoding.com/sketch -->
    <title>globe</title>
    <desc>Created with Sketch.</desc>
    <defs></defs>
    <g id="Octicons" stroke="none" stroke-width="1" fill="none" fill-rule="evenodd">
        <g id="globe" fill="#000000">
            <path d="M7,1 C3.14,1 0,4.14 0,8 C0,11.86 3.14,15 7,15 C7.48,15 7.94,14.95 8.38,14.86 C8.21,14.78 8.18,14.13 8.36,13.77 C8.55,13.36 9.17,12.32 8.56,11.97 C7.95,11.62 8.12,11.47 7.75,11.06 C7.38,10.65 7.53,10.59 7.5,10.48 C7.42,10.14 7.86,9.59 7.89,9.54 C7.91,9.48 7.91,9.27 7.89,9.21 C7.89,9.13 7.62,8.99 7.55,8.98 C7.49,8.98 7.44,9.09 7.35,9.11 C7.26,9.13 6.85,8.86 6.76,8.78 C6.67,8.7 6.62,8.55 6.49,8.44 C6.36,8.31 6.35,8.41 6.16,8.33 C5.97,8.25 5.36,8.02 4.88,7.85 C4.4,7.66 4.36,7.38 4.36,7.19 C4.34,6.99 4.06,6.72 3.94,6.52 C3.8,6.32 3.78,6.05 3.74,6.11 C3.7,6.17 3.99,6.89 3.94,6.92 C3.89,6.94 3.78,6.72 3.64,6.54 C3.5,6.35 3.78,6.45 3.34,5.59 C2.9,4.73 3.48,4.29 3.51,3.84 C3.54,3.39 3.89,4.01 3.7,3.71 C3.51,3.41 3.7,2.82 3.56,2.6 C3.43,2.38 2.68,2.85 2.68,2.85 C2.7,2.63 3.37,2.27 3.84,1.93 C4.31,1.59 4.62,1.87 5,1.98 C5.39,2.11 5.41,2.07 5.28,1.93 C5.15,1.8 5.34,1.76 5.64,1.8 C5.92,1.85 6.02,2.21 6.47,2.16 C6.94,2.13 6.52,2.25 6.58,2.38 C6.64,2.51 6.52,2.49 6.2,2.68 C5.9,2.88 6.22,2.9 6.75,3.29 C7.28,3.68 7.13,3.04 7.06,2.74 C6.99,2.44 7.45,2.68 7.45,2.68 C7.78,2.9 7.72,2.7 7.95,2.76 C8.18,2.82 8.86,3.4 8.86,3.4 C8.03,3.84 8.55,3.88 8.69,3.99 C8.83,4.1 8.41,4.29 8.41,4.29 C8.24,4.12 8.22,4.31 8.11,4.37 C8,4.43 8.09,4.59 8.09,4.59 C7.53,4.68 7.65,5.28 7.67,5.42 C7.67,5.56 7.29,5.78 7.2,6 C7.11,6.2 7.45,6.64 7.26,6.66 C7.07,6.69 6.92,6 5.95,6.25 C5.65,6.33 5.01,6.66 5.36,7.33 C5.72,8.02 6.28,7.14 6.47,7.24 C6.66,7.34 6.41,7.77 6.45,7.79 C6.49,7.81 6.98,7.81 7.01,8.4 C7.04,8.99 7.78,8.93 7.93,8.95 C8.1,8.95 8.63,8.51 8.7,8.5 C8.76,8.47 9.08,8.22 9.73,8.59 C10.39,8.95 10.71,8.9 10.93,9.06 C11.15,9.22 11.01,9.53 11.21,9.64 C11.41,9.75 12.27,9.61 12.49,9.95 C12.71,10.29 11.61,12.04 11.27,12.23 C10.93,12.42 10.79,12.87 10.43,13.15 C10.07,13.43 9.62,13.79 9.16,14.06 C8.75,14.29 8.69,14.72 8.5,14.86 C11.64,14.16 13.98,11.36 13.98,8.02 C13.98,4.16 10.84,1.02 6.98,1.02 L7,1 Z M8.64,7.56 C8.55,7.59 8.36,7.78 7.86,7.48 C7.38,7.18 7.05,7.25 7,7.2 C7,7.2 6.95,7.09 7.17,7.06 C7.61,7.01 8.15,7.47 8.28,7.47 C8.41,7.47 8.47,7.34 8.69,7.42 C8.91,7.5 8.74,7.55 8.64,7.56 L8.64,7.56 Z M6.34,1.7 C6.29,1.67 6.37,1.62 6.43,1.56 C6.46,1.53 6.45,1.45 6.48,1.42 C6.59,1.31 7.09,1.17 7,1.45 C6.89,1.72 6.42,1.75 6.34,1.7 L6.34,1.7 Z M7.57,2.59 C7.38,2.57 6.99,2.54 7.05,2.45 C7.35,2.17 6.96,2.07 6.71,2.07 C6.46,2.05 6.37,1.91 6.49,1.88 C6.61,1.85 7.1,1.9 7.19,1.96 C7.27,2.02 7.71,2.21 7.74,2.34 C7.76,2.47 7.74,2.59 7.57,2.59 L7.57,2.59 Z M9.04,2.54 C8.9,2.63 8.21,2.13 8.09,2.02 C7.53,1.54 7.2,1.71 7.09,1.61 C6.98,1.51 7.01,1.42 7.2,1.27 C7.39,1.12 7.89,1.33 8.2,1.36 C8.5,1.39 8.86,1.63 8.86,1.91 C8.88,2.16 9.19,2.41 9.05,2.54 L9.04,2.54 Z" id="Shape"></path>
        </g>
    </g>
</svg>
